packages/kaspersky-hexa-ui-icons/src/iconsSVGs/24/PodK8S.svg

<svg width="24" height="24" viewBox="0 0 24 24" fill="none" xmlns="http://www.w3.org/2000/svg">
<path fill-rule="evenodd" clip-rule="evenodd" d="M12.3162 2.05132C12.111 1.98289 11.889 1.98289 11.6838 2.05132L2.70565 5.04402C2.59728 5.07735 2.49675 5.1286 2.40754 5.19432C2.34982 5.23677 2.29713 5.28511 2.2502 5.33832C2.09449 5.51463 2 5.74628 2 6V17.1516C2 17.5519 2.23875 17.9137 2.60684 18.0711L11.6068 21.9195C11.8579 22.0268 12.1421 22.0268 12.3932 21.9195L21.3932 18.0711C21.7613 17.9137 22 17.5519 22 17.1516V6C22 5.74628 21.9055 5.51463 21.7498 5.33832C21.7029 5.28511 21.6502 5.23677 21.5925 5.19432C21.5032 5.1286 21.4027 5.07735 21.2943 5.04402L12.3162 2.05132ZM20 7.38743L12.9923 9.72334C12.9974 9.76431 13 9.80605 13 9.8484V19.4848L20 16.4916V7.38743ZM11.0077 9.72334L4 7.38743V16.4916L11 19.4848V9.8484C11 9.80605 11.0026 9.76431 11.0077 9.72334ZM12 7.94591L6.16228 6L12 4.05409L17.8377 6L12 7.94591Z" fill="black"/>
</svg>

<svg xmlns="http://www.w3.org/2000/svg" width="24" height="24" fill="none" viewBox="0 0 24 24"><path fill="#000" fill-rule="evenodd" d="M12.3162 2.0513a1 1 0 0 0-.6324 0L2.7057 5.044a1 1 0 0 0-.4555.2943A.996.996 0 0 0 2 6v11.1516a1 1 0 0 0 .6068.9195l9 3.8484c.2511.1073.5353.1073.7864 0l9-3.8484A1 1 0 0 0 22 17.1516V6a.996.996 0 0 0-.2502-.6617 1 1 0 0 0-.4555-.2943zM20 7.3874l-7.0077 2.336q.0077.0615.0077.125v9.6364l7-2.9932zm-8.9923 2.336L4 7.3873v9.1042l7 2.9932V9.8484q0-.0635.0077-.125M12 7.9458 6.1623 6 12 4.054 17.8377 6z"/></svg>
